app/client/src/assets/icons/blueprintjs/20px/header-three.svg

<svg width="20" height="21" viewBox="0 0 20 21" fill="none" xmlns="http://www.w3.org/2000/svg">
<path fill-rule="evenodd" clip-rule="evenodd" d="M10.989 1C10.989 0.45 10.5395 0 9.99001 0C9.44056 0 8.99101 0.45 8.99101 1V7H1.998V1C1.998 0.45 1.54845 0 0.999001 0C0.44955 0 0 0.45 0 1V15C0 15.55 0.44955 16 0.999001 16C1.54845 16 1.998 15.55 1.998 15V9H8.99101V15C8.99101 15.55 9.44056 16 9.99001 16C10.5395 16 10.989 15.55 10.989 15V1ZM18.45 14.645C18.94 14.755 19.32 15.025 19.59 15.465C19.86 15.905 20 16.435 20 17.075C20 17.535 19.92 17.945 19.76 18.305C19.6 18.665 19.38 18.975 19.1 19.225C18.83 19.475 18.51 19.665 18.14 19.805C17.77 19.945 17.39 20.015 16.98 20.015C16.48 20.015 16.05 19.935 15.68 19.775C15.31 19.615 15 19.385 14.75 19.095C14.5 18.805 14.31 18.445 14.18 18.035C14.05 17.615 13.98 17.155 13.97 16.655H15.36C15.34 17.235 15.47 17.725 15.74 18.115C16.02 18.505 16.42 18.695 16.97 18.695C17.44 18.695 17.83 18.545 18.14 18.245C18.45 17.945 18.61 17.525 18.61 16.975C18.61 16.605 18.54 16.305 18.41 16.085C18.28 15.865 18.11 15.695 17.9 15.585C17.69 15.475 17.45 15.405 17.19 15.375C16.93 15.345 16.66 15.335 16.38 15.345V14.175C16.6 14.185 16.83 14.175 17.06 14.125C17.29 14.075 17.49 13.995 17.67 13.885C17.85 13.775 17.99 13.615 18.1 13.415C18.21 13.215 18.26 12.965 18.26 12.675C18.26 12.265 18.14 11.935 17.89 11.685C17.64 11.435 17.32 11.315 16.93 11.315C16.69 11.315 16.48 11.375 16.3 11.485C16.12 11.595 15.97 11.745 15.85 11.935C15.73 12.125 15.65 12.335 15.59 12.565C15.54 12.795 15.51 13.035 15.52 13.285H14.13C14.14 12.815 14.22 12.385 14.36 11.985C14.5 11.585 14.69 11.235 14.93 10.945C15.17 10.645 15.46 10.415 15.8 10.255C16.14 10.085 16.53 10.005 16.96 10.005C17.29 10.005 17.62 10.055 17.94 10.165C18.26 10.275 18.55 10.435 18.81 10.645C19.07 10.855 19.28 11.115 19.43 11.445C19.58 11.765 19.66 12.145 19.66 12.565C19.66 13.045 19.57 13.475 19.37 13.835C19.17 14.195 18.87 14.465 18.45 14.625V14.645Z" fill="black"/>
</svg>

<svg xmlns="http://www.w3.org/2000/svg" width="20" height="21"><path fill-rule="evenodd" d="M10.989 1c0-.55-.45-1-.999-1-.55 0-.999.45-.999 1v6H1.998V1c0-.55-.45-1-.999-1C.449 0 0 .45 0 1v14c0 .55.45 1 .999 1 .55 0 .999-.45.999-1V9h6.993v6c0 .55.45 1 .999 1 .55 0 .999-.45.999-1V1Zm7.461 13.645c.49.11.87.38 1.14.82.27.44.41.97.41 1.61a3 3 0 0 1-.24 1.23c-.16.36-.38.67-.66.92-.27.25-.59.44-.96.58-.37.14-.75.21-1.16.21-.5 0-.93-.08-1.3-.24a2.55 2.55 0 0 1-.93-.68c-.25-.29-.44-.65-.57-1.06-.13-.42-.2-.88-.21-1.38h1.39c-.02.58.11 1.07.38 1.46.28.39.68.58 1.23.58.47 0 .86-.15 1.17-.45.31-.3.47-.72.47-1.27 0-.37-.07-.67-.2-.89-.13-.22-.3-.39-.51-.5-.21-.11-.45-.18-.71-.21-.26-.03-.53-.04-.81-.03v-1.17c.22.01.45 0 .68-.05.23-.05.43-.13.61-.24.18-.11.32-.27.43-.47.11-.2.16-.45.16-.74 0-.41-.12-.74-.37-.99s-.57-.37-.96-.37c-.24 0-.45.06-.63.17-.18.11-.33.26-.45.45s-.2.4-.26.63c-.05.23-.08.47-.07.72h-1.39c.01-.47.09-.9.23-1.3s.33-.75.57-1.04c.24-.3.53-.53.87-.69.34-.17.73-.25 1.16-.25.33 0 .66.05.98.16.32.11.61.27.87.48.26.21.47.47.62.8.15.32.23.7.23 1.12 0 .48-.09.91-.29 1.27-.2.36-.5.63-.92.79v.02Z" clip-rule="evenodd"/></svg>
